public/svgs/steps/step1-active.svg

<svg width="25" height="24" viewBox="0 0 25 24" fill="none" xmlns="http://www.w3.org/2000/svg">
<path d="M0.167969 14.9995V9.00054H4.92469L1.56166 5.63535L5.80332 1.39369L9.16851 4.75672V0H15.1674V4.75672L18.5326 1.39369L22.7743 5.63535L19.4113 9.00054H24.168V14.9995H19.4113L22.7743 18.3647L18.5326 22.6063L15.1674 19.2433V24H9.16851V19.2433L5.80332 22.6063L1.56166 18.3647L4.92469 14.9995H0.167969Z" fill="#FF6D3A"/>
<path d="M13.7109 8H12.1484L10.168 9.25781V10.7344L12.0039 9.58203H12.0508V16H13.7109V8Z" fill="white"/>
</svg>

<svg width="25" height="24" fill="none" xmlns="http://www.w3.org/2000/svg"><path d="M.168 15V9h4.757L1.562 5.636l4.241-4.241L9.17 4.757V0h5.998v4.757l3.366-3.363 4.241 4.241-3.363 3.366h4.757v5.998h-4.757l3.363 3.366-4.241 4.241-3.366-3.363V24H9.17v-4.757l-3.366 3.363-4.241-4.241L4.925 15H.168Z" fill="#FF6D3A"/><path d="M13.71 8h-1.562l-1.98 1.258v1.476l1.836-1.152h.047V16h1.66V8Z" fill="#fff"/></svg>
